X: 1201
T: An Cupan Tae
R: jig
M: 6/8
K: Edorian
|:E3 GFE|dcA BAd|E3 GFE|dcA B2 G|
E3 GFE|dcA B2 d|eBe B^AB|AFD E2:|
|:eBB eBB|e/f/ge fed|eBB eBg|afd e2 g|
eBB eBB|ege fed|eBe B^AB|AFD E2:|

